!!!COM: Fanny (Mendelssohn) Hensel
!!!CNT: Deutsch
!!!TXO: Deutsch
!!!OTL: "Nacht ist wie ein stilles Meer"
!!!LYR: von Eichendorff, Joseph Freiherr
!!!OPR: 
!!!OPS: Op. 
!!!ONM: No. 
!!!ENC: Emily Thomas
!!!YOR: Hensel: Ausgewa2hlte Lieder fu2r Singstimme und Klavier
!!!YOR: Breitkopf & Hartel, 1994 vol. 2
!!!ODT: 1846/
!!NB: Vocal melody and text encoded.
**kern	**silbe
=1-	=1
*clefG2	*
*k[b-e-]	*
*M4/4	*
*MM[Allegro]	*
4r	.
{[4ff	{Nacht
8ff]	|
8b-	ist
8a	wie
8b-	ein
=2	=2
4.ee-	stil-
8dd	-les
4b-}	Meer,}
4r	.
=3	=3
{4g	{Leid
8f	|
8en	und
4f	Lust
8r	.
8f	und
=4	=4
4ee-	Lie-
8dd	|
8cc#	-bes-
4cc#	-kla-
4dd	-gen
=5	=5
8dd	to2-
8ccn	-nen
8b-	so
8a	ver-
8g#	-wor-
4ff	|
8dd	-ren
=6	=6
4cc#	her
8a	in
8a	dem
4een	lin-
4dd	-den
=7	=7
4ccn	Wel-
8b-	-len-
8a	|
4.g#	-schla-
8dd	|
=8	=8
4cc#}	-gen,}
4r	.
2r	.
=9	=9
{4.dd-	{to2-
8dd-	-nen
8cc	so
8b-	ver-
8a	-wor-
8b-	-ren
=10	=10
4cc	her
8f	in
8f	dem
4ff	lin-
8ee-	-den
8dd	|
=11	=11
4cc	Wel-
8a	-len-
8b-	|
4.ee-	-schla-
8dd	|
=12	=12
4b-}	-gen.}
4r	.
2r	.
=13	=13
{4.dd	{Schliess
8dd	ich
8cc	nun
8b-	auch
8a	Herz
8b-	und
=14	=14
4cc}	Mund,}
4r	.
4r	.
{8f	{die
8f	so
=15	=15
[2ff	gern
8ff]	|
8ee-	den
8.gg-	Ster-
16ff	-nen
=16	=16
4ee-	kla-
4dd-}	-gen,}
4r	.
{8dd-	{lei-
8cc	-se
=17	=17
4.bn	doch
8b	im
4.cc	Her-
8g	-zens-
=18	=18
4b-	-grund
4a}	|}
4r	.
{8dd	{bleibt
8dd	das
=19	=19
4.ee-	lin-
8ee-	-de
4.ff	Wel-
8cc	-len-
=20	=20
4ee-	-schla-
4dd}	-gen,}
2r	.
=21	=21
{4gg	{lei-
8ff	|
8ee-	-se
8dd	doch
8cc	|
8b-	bleibt
8g	das
=22	=22
8f	lin-
8b-	|
8a	|
8b-	-de
4.ee-	Wel-
8dd	-len-
=23	-23
4cc	-schla-
4b-}	-gen.}
2r	.
==	==
*-	*-
